X:1
T:Title
%%score { ( 1 4 5 ) | ( 2 3 ) }
L:1/8
M:2/4
K:F
V:1 treble nm="Grand Piano"
V:4 treble 
V:5 treble 
V:2 bass 
V:3 bass 
V:1
 z2 z z/[Q:1/4=106] A,/ | D>^C D>E | F>E F>G | A2 B2 | GF E>D | ^C>C C>D | E>E E>F | G2 A2 | %8
 FE D>D | A>A A>A | A>F D>D | B2 B2 | B2 E>E | c>c c>d | c>B A>G | F>E D>^C | D4 | D>^C D>E | F4 | %19
 A>_A =A>F | D4 | E>E E>F | G4 | B>B A>_A | z2 z z/ A/ | d>d c>B | z2 z z/ A/ | E>G F>E | %28
 z2 z z/ D/ | E>E E>E | z2 z z/ F/ | G>G G>B | A4 |] %33
V:2
 z4 | D,2 F,2 | A,2 F,2 | D,2 [G,B,]2 | ^C,2 [G,A,]2 | ^C,2 [G,A,]2 | [G,A,]2 [G,A,]2 | %7
 ^C,2 [G,A,]2 | D,2 [F,A,]2 | D,2 F,2 | A,2 F,2 | D,2 G,2 | B,2 G,2 | C,2 E,2 | G,2 C2 | D,2 F,2 | %16
 A,2 z z/ A,/ | D,2 F,2 | A,2 z z/ G/ | D,2 F,2 | A,2 z z/ D/ | ^C,2 G,2 | A,2 z z/ G/ | %23
 ^C,2 [G,A,]2 | D,2 F,2 | D,2 [G,B,]2 | D,2 F,2 | ^C,2 [G,A,]2 | D,2 F,2 | D,2 [G,B,]2 | D,2 F,2 | %31
 ^C,2 [G,A,]2 | [D,F,A,]4 |] %33
V:3
 x4 | x4 | x4 | x4 | x4 | x4 | x4 | x4 | x4 | x4 | x4 | x4 | x4 | x4 | x4 | x4 | z2 F,2 | x4 | %18
 z2 F,2 | x4 | z2 F,2 | x4 | z2 G,2 | x4 | x4 | x4 | x4 | x4 | x4 | x4 | x4 | x4 | x4 |] %33
V:4
 x4 | x4 | x4 | x4 | x4 | x4 | x4 | x4 | x4 | x4 | x4 | x4 | x4 | x4 | x4 | x4 | x4 | x4 | x4 | %19
 x4 | x4 | x4 | x4 | x4 | A4 | x4 | A4 | x4 | D4 | x4 | F4 | x4 | x4 |] %33
V:5
 x4 | x4 | x4 | x4 | x4 | x4 | x4 | x4 | x4 | x4 | x4 | x4 | x4 | x4 | x4 | x4 | x4 | x4 | x4 | %19
 x4 | x4 | x4 | x4 | x4 | z2 A,2 | x4 | z2 A,2 | x4 | z2 A,2 | x4 | z2 A,2 | x4 | x4 |] %33

